X:1
T:Guillaume Costeley 1531 - 1606
T:Las, Je n'eusse jamais pensé
%%score [ 1 2 3 4 ]
L:1/8
Q:1/4=240
M:4/4
K:C
V:1 treble nm="Superius"
V:2 treble nm="Contratenor"
V:3 treble nm="Tenor"
V:4 treble nm="Bassus"
V:1
 x8 ||[K:F] G8 A4 B4 | c4 d4 d4 ^c4 | d8 B4 B2 B2 | B4 B4 A4 G4 | ^F8 G4 A2 B2 | c4 d4 d4 ^c4 | %7
w: |Las je n'eus-|se ja- mais pen-|sé, Da- me qui|cau- se ma lan-|gueur, De voir ain-|si re- com- pen-|
w: |Si for- tuné|j'eus- se ap- per-|çeu, Quand je te|vy pre- nier- re-|ment, Le mal que|de- puis j'ay re-|
 d8 B4 B2 B2 | A4 G4 G4 ^F4 | G16 | G4 G2 G2 c6 B2 | A4 B8 A2 G2 | ^F8 z2 G2 G2 G2 x4 | %13
w: sé, Mon ser- vi-|ce d'u- ne ri-|gueur,|Et qu'en lieu de me|se- cou- rir, *|* Et * *|
w: çue, Pour ay- mer|trop loy- al- le-|ment,|Mon cur qui franc a-||* * qu'en lieu|
 B4 A4 G4 G4 x4 | ^F8 d4 B2 B2 | G4 B4 A4 G4 | ^F4 G4 G4 !courtesy!^F4 | G8 d4 B2 B2 | %18
w: |* Ta cru- au-|té, Ta cru- au-|té m'eut fait mou-|rir, Ta cru- au-|
w: de me se- cou-|rir, * * *|sté, N'eut pas e-|sté si tot vain-|cu, N'eut pas e-|
 G4 B4 A4 G4 | ^F4 G4 G4[Q:1/4=120] !courtesy!^F4 |"^-" !fermata!x16 |] %21
w: té, Ta cru- au-|té m'eut fait mou-||
w: sté, N'eut pas e-|sté si tot vain-||
V:2
 x8 ||[K:F] D8 F4 G4 | A4 A4 A4 A4 | ^F8 G4 G2 G2 | G4 F4 F4 D4 | D8 D4 F2 G2 | A4 A4 A4 A4 | %7
w: |Las je n'eus-|se ja- mais pen-|sé, Da- me qui|cau- se ma lan-|gueur, De voir ain-|si re- com- pen-|
w: |Si for- tuné|j'eus- se ap- per-|çeu, Quand je te|vy pre- nier- re-|ment, Le mal que|de- puis j'ay re-|
 ^F8 G4 G2"^(  )" =F2 | F4 D4 _E4 D4 | =B,4 G,4 D6 D2 | E4 E4 F4 E2 D2 | F2 E2 D2 C2 B,4 C4 | %12
w: sé, Mon ser- vi-|ce d'u- ne ri-|gueur, Et qu'en lieu|de me se- * *|* * * * * cou-|
w: çue, Pour ay- mer|trop loy- al- le-|ment, Mon cur qui|franc a- voit * *||
 A,4 D4 D6 D2 x4 | G4 F4 _E4 E4 x4 | D4 z2 D2 F4 G4 | D4 G4 _E6 E2 | D4 C4 D4 D4 | %17
w: rir, Et * *||* Ta cru- au-|té, Ta cru- au-|té m'eut fait mou-|
w: * * qu'en lieu|de me se- cou-|rir, * * *|sté, N'eut pas e-|sté si tot vain-|
 =B,4 z2 D2 F4 G4 | D4 G4 _E6 E2 | D4 C4 D4 D4 |"^-" !fermata!x16 |] %21
w: rir, Ta cru- au-|té, Ta cru- au-|té m'eut fait mou-||
w: cu, N'eut pas e-|sté, N'eut pas e-|sté si tot vain-||
V:3
 x8 ||[K:F][K:treble-8] G8 d4 d4 | f4 f4 e4 e4 | d8 d4 d2 d2 | _e4 d4 c4 B4 | A8 G4 d2 d2 | %6
w: |Las je n'eus-|se ja- mais pen-|sé, Da- me qui|cau- se ma lan-|gueur, De voir ain-|
w: |Si for- tuné|j'eus- se ap- per-|çeu, Quand je te|vy pre- nier- re-|ment, Le mal que|
 f4 f4 e4 e4 | d8 d4 _e2 d2 | c4 B4 c4 A4 | G8 G4 G2 G2 | c6 B2 A4 A4 | d4 G4 d4 _e4 | %12
w: si re- com- pen-|sé, Mon ser- vi-|ce d'u- ne ri-|gueur, Et qu'en lieu|de me se- cou-|rir, me se- cou-|
w: de- puis j'ay re-|çue, Pour ay- mer|trop loy- al- le-|ment, Mon cur qui|franc a- voit ves-||
 d4 z2 A2 B6 c2 x4 | d4 d4 B4 c4 x4 | A4 d4 B2 B2 G4 | B4 G2 G2 c6 B2 | A4 G4 A4 A4 | %17
w: rir, Et * *||* Ta cru- au- té|Ta cru- au- té *|* m'eut fait mou-|
w: * * qu'en lieu|de me se- cou-|rir, * * * *|N'eut pas e- sté *|* si tot vain-|
 G4 d4 B2 B2 G4 | B4 G2 G2 c6 B2 | A4 G4 A4 A4 |"^-" !fermata!x16 |] %21
w: rir, Ta cru- au- té,|Ta cru- au- té *|* m'eut fait mou-||
w: cu, N'eut pas e- sté,|N'eut pas e- sté *|* si tot vain-||
V:4
 x8 ||[K:F][K:bass] G,8 D,4 G,4 | F,4 D,4 A,4 A,4 | D,8 G,4 G,2 G,2 | _E,4 B,,4 F,4 G,4 | %5
w: |Las je n'eus-|se ja- mais pen-|sé, Da- me qui|cau- se ma lan-|
w: |Si for- tuné|j'eus- se ap- per-|çeu, Quand je te|vy pre- nier- re-|
 D,8 G,4 D,2 G,2 | F,4 D,4 A,4 A,4 | D,8 G,4 _E,2 B,,2 | F,4 G,4 C,4 D,4 | G,8 z8 | z16 | z16 | %12
w: gueur, De voir ain-|si re- com- pen-|sé, Mon ser- vi-|ce d'u- ne ri-|gueur,|||
w: ment, Le mal que|de- puis j'ay re-|çue, Pour ay- mer|trop loy- al- le-|ment,|||
 D,4 D,2 D,2 G,12 | D,4 _E,4 C,4 D,8 | z8 x8 | G,4 _E,2 E,2 C,4 C,4 | D,4 _E,4 D,8 | G,8 z8 | %18
w: Et qu'en lieu de\_\_\_\_\_\_\_\_\_\_\_\_\_\_\_\_\_\_|me se- cou- rir,||Ta cru- au- té m'eut|fait mou- rir,||
w: Mon cur qui franc\_\_\_\_\_\_\_\_\_\_\_\_\_\_\_\_|a- voit ves- cu,||N'eut pas e- sté si|tot vain- cu,||
 G,4 _E,2 E,2 C,4 C,4 | D,4 _E,4 D,8 |"^-" !fermata!x16 |] %21
w: Ta cru- au- té m'eut|fait mou- rir.||
w: N'eut pas e- sté si|tot vain- cu.||

